X: 10251
T: LOCHABER
Q: "Slow"
%R: air, waltz
B: "Edinburgh Repository of Music" v.1 p.25 #1
F: http://digital.nls.uk/special-collections-of-printed-music/pageturner.cfm?id=87776133
Z: 2015 John Chambers <jc:trillian.mit.edu>
M: 3/4
L: 1/8
K: C
c>d |\
e2 e2 e>f | e2 d2 eg | a2 d2 de | {e2}d4 cd |\
e2 fedc | {A}G4 cd | e2 c2 cd | {d2}c4 :|
|: c2 |\
e>f g2 g2 | g>a gfed | c2 c'2 c'2 | c'4 c2 |\
ef g2 g2 | agfedc | c2 c'2 c'2 | c'4 ga |
_b3 c'bc' | a2 g2 ac' | d'2 d2 de/f/ | {e2}d4 cd |\
e2 fedc | A2 G2 c>d | e2 c2 c>d | {d2}c4 :|

%%sep 2 1 500
%%sep 1 1 500

